X: 214
T: The old grey goose
C: anon.
O: Ireland
B: Francis O'Neill: "The Dance Music of Ireland" (1907) no. 214
R: Double jig
Z: Transcribed by Frank Nordberg - http://www.musicaviva.com
F: http://www.musicaviva.com/abc/tunes/ireland/oneill-1001/oneill-1001-021
4.abc
m: Mn = (3n/o/n/
M: 6/8
L: 1/8
K: Em
(E/F/)|GBG FAF|GEE E2F|DFA dAG|FDD DEF|MGFG AGA|BAB gfg|edB ({c}B)AF GEE
E2:|
|:F|G2G dBG|GA (B/c/) dBG|A2A ecA|A(Bc/d/) ecA|GAG dBG|egf ({a}g)fg|edB M
BAF|GEE E2:|d|efe edB|def g2e|
fdd add|fag fed|gfg fef|def ({a}g)fg|edB MBAF|GEE E2:|c|BGG AFF|GEE E2c|B
GG dAG|FDD D2c|
BGG AGF|GEE ({a}g)fg|edB MBAF|GEE E2:|f|gbg faf|gee e2f|gbg fag|fdd def|g
bg faf|egf ({a}g)fg|
edB MBAF|GEE E2:|f|gdc BcA|GEE E2f|gdB dAG|FDD DEF|G3 ({B}A)GA|Bcb ({a}g)
fg|edB MBAF|EGG G2:|
W:
W:
W: From Musica Viva - http://www.musicaviva.com
W: the Internet center for free sheet music downloads.


